X:1
T:INVERARAY
T:INVERARAY
T:Carl Volti
C:Carl Volti
%%score ( 1 2 )
L:1/8
Q:1/4=120
M:4/4
K:D
V:1 treble 
V:2 treble 
V:1
|:"^Strathspey." vA<ud vd>ue vf>veud>uB | A<d d<f e>d e<f | A<d d>e f>ed>A | %3
 B<d A>G (F<D)"^1st""^2nd" D>f |: a>fd>A B<d A<F | a>fd>A (B<d) e2 | a>fd>A B<d A<F | %7
 B<d A>G (F<D)"^2nd""^1st" D>f |] %8
V:2
|: x8 | x8 | x8 | x6 D2 |: x8 | x8 | x8 | x6 D2 |] %8

